dist/svg/u1F54D.svg

<?xml version="1.0" encoding="UTF-8"?><svg id="Layer_1" xmlns="http://www.w3.org/2000/svg" viewBox="0 0 40 40"><rect width="40" height="40" style="fill:none;"/><rect width="40" height="40" style="fill:none;"/><g><g><path d="M8.94623,12.88356l.9511,18.80375H30.10267l.92606-18.82352L20.60241,4.63292c-.35321-.27884-.85162-.27884-1.20483,0L8.94623,12.88356Z" style="fill:#f77f00;"/><polygon points="9.89733 16.02162 9.89733 35.5762 30.10267 35.5762 30.10267 16.02162 20 8.04625 9.89733 16.02162" style="fill:#ffe3a0;"/><rect x="17.04992" y="31.08457" width="5.90016" height="4.49163" style="fill:#86584a;"/><path d="M20,27.21773c-1.6293,0-2.95008,1.32079-2.95008,2.95006v.91678h5.90016v-.91678c0-1.62927-1.32085-2.95006-2.95008-2.95006Z" style="fill:#86584a;"/><circle cx="20" cy="18.13733" r="4.98388" style="fill:#ffc100;"/><path d="M21.94824,18.13726l.85378-1.42018c.04873-.08105-.00965-.18426-.10422-.18426h-1.71417l-.87935-1.46264c-.04725-.0786-.16119-.0786-.20844,0l-.87939,1.46264h-1.71424c-.09457,0-.15295,.10321-.10422,.18426l.85382,1.42018-.85381,1.42009c-.04873,.08105,.00965,.18427,.10422,.18427h1.71415l.87948,1.46287c.04725,.0786,.16119,.0786,.20844,0l.87945-1.46287h1.71406c.09457,0,.15295-.10321,.10422-.18427l-.85377-1.42009Z" style="fill:#ffef61;"/></g><path d="M9.89733,13.91752v21.65868H4.44444c-1.07389,0-1.94444-.87056-1.94444-1.94444V13.91752h7.39733Z" style="fill:#ffd06c;"/><path d="M5.48867,8.90581c.38424-.41541,1.03576-.41541,1.42,0,1.0742,1.16133,2.98867,3.43723,2.98867,4.90685v2.04931H2.5v-2.04931c0-1.46962,1.91446-3.74552,2.98867-4.90685Z" style="fill:#f77f00;"/><path d="M30.10267,13.91752v21.65868h5.45289c1.07389,0,1.94444-.87056,1.94444-1.94444V13.91752h-7.39733Z" style="fill:#ffd06c;"/><path d="M34.51133,8.90581c-.38424-.41541-1.03576-.41541-1.42,0-1.0742,1.16133-2.98867,3.43723-2.98867,4.90685v2.04931h7.39733v-2.04931c0-1.46962-1.91446-3.74552-2.98867-4.90685Z" style="fill:#f77f00;"/></g></svg>

<svg id="Layer_1" data-name="Layer 1" xmlns="http://www.w3.org/2000/svg" viewBox="0 0 40 40"><defs><style>.cls-1{fill:none;}.cls-2{fill:#f77f00;}.cls-3{fill:#ffe3a0;}.cls-4{fill:#86584a;}.cls-5{fill:#ffc100;}.cls-6{fill:#ffef61;}.cls-7{fill:#ffd06c;}</style></defs><rect class="cls-1" width="40" height="40"/><rect class="cls-1" width="40" height="40"/><path class="cls-2" d="M8.946,12.884l.951,18.8H30.1l.926-18.823L20.6,4.633a.971.971,0,0,0-1.2,0Z"/><polygon class="cls-3" points="9.897 16.022 9.897 35.576 30.103 35.576 30.103 16.022 20 8.046 9.897 16.022"/><rect class="cls-4" x="17.05" y="31.085" width="5.9" height="4.492"/><path class="cls-4" d="M20,27.218a2.95,2.95,0,0,0-2.95,2.95v.917h5.9v-.917A2.95,2.95,0,0,0,20,27.218Z"/><circle class="cls-5" cx="20" cy="18.137" r="4.984"/><path class="cls-6" d="M21.948,18.137l.854-1.42a.121.121,0,0,0-.1-.184H20.984L20.1,15.07a.122.122,0,0,0-.208,0l-.88,1.463H17.3a.121.121,0,0,0-.1.184l.854,1.42-.854,1.42a.122.122,0,0,0,.1.185h1.714L19.9,21.2a.121.121,0,0,0,.208,0l.88-1.462H22.7a.122.122,0,0,0,.1-.185Z"/><path class="cls-7" d="M9.9,13.918V35.576H4.444A1.944,1.944,0,0,1,2.5,33.632V13.918Z"/><path class="cls-2" d="M5.489,8.906a.964.964,0,0,1,1.42,0C7.983,10.067,9.9,12.343,9.9,13.813v2.049H2.5V13.813C2.5,12.343,4.414,10.067,5.489,8.906Z"/><path class="cls-7" d="M30.1,13.918V35.576h5.453A1.944,1.944,0,0,0,37.5,33.632V13.918Z"/><path class="cls-2" d="M34.511,8.906a.964.964,0,0,0-1.42,0c-1.074,1.161-2.988,3.437-2.988,4.907v2.049h7.4V13.813C37.5,12.343,35.586,10.067,34.511,8.906Z"/></svg>
